X:115
T:Take me Jenny
M:2/4
L:1/8
B:Thompson's Compleat Collection of 200 Favourite Country Dances, vol. 3 (London, 1773)
Z:Transcribed and edited by Flynn Titford-Mock, 2007
Z:abc's:AK/Fiddler's Companion
K:G
B2 AG | ABcA | B2 AG | e A2d | B2 cd | efgd | e2 Ad | BG G2::d>edg | e>=feg | d>e {d}dc/B/ | B3 A |
d>edg | e>=feg | d>e {d}dc/B/ | B3 A | d>c B2 | e>d c2 | g2 d=f | ec c2 | B>c d2 | e>fga | b(gg)d | eg g2 :|

